gdscript/src/main/resources/icons/godot_editor/Progress4.svg

<svg height="16" viewBox="0 0 16 16" width="16" xmlns="http://www.w3.org/2000/svg"><g fill="#e0e0e0" transform="translate(0 -1036.4)"><path d="m9 1.0781v3.0547a4 4 0 0 1 1.0273.42578l2.1582-2.1582a7 7 0 0 0 -3.1855-1.3223zm-2 .0019531a7 7 0 0 0 -3.1855 1.3203l2.1582 2.1582a4 4 0 0 1 1.0273-.42773v-3.0508zm-4.5996 2.7344a7 7 0 0 0 -1.3223 3.1855h3.0547a4 4 0 0 1 .42578-1.0273l-2.1582-2.1582zm11.199 0-2.1582 2.1582a4 4 0 0 1 .42774 1.0273h3.0508a7 7 0 0 0 -1.3203-3.1855zm-12.52 5.1855a7 7 0 0 0 1.3203 3.1855l2.1582-2.1582a4 4 0 0 1 -.42773-1.0273h-3.0508zm10.787 0a4 4 0 0 1 -.42578 1.0273l2.1582 2.1582a7 7 0 0 0 1.3223-3.1855h-3.0547zm-5.8945 2.4414-2.1582 2.1582a7 7 0 0 0 3.1855 1.3223v-3.0547a4 4 0 0 1 -1.0273-.42578z" fill-opacity=".19608" transform="translate(0 1036.4)"/><path d="m10.027 1047.8a4 4 0 0 1 -1.0273.4277v3.0508a7 7 0 0 0 3.1855-1.3203z"/></g></svg>

<svg height="16" viewBox="0 0 16 16" width="16" xmlns="http://www.w3.org/2000/svg"><g fill="#e0e0e0"><path d="M9 1.078v3.055a4 4 0 0 1 1.027.426L12.186 2.4A7 7 0 0 0 9 1.078zM7 1.08A7 7 0 0 0 3.814 2.4l2.159 2.159A4 4 0 0 1 7 4.13V1.079zM2.4 3.814A7 7 0 0 0 1.078 7h3.055a4 4 0 0 1 .426-1.027L2.4 3.814zm11.2 0-2.159 2.159A4 4 0 0 1 11.869 7h3.05a7 7 0 0 0-1.32-3.186zM1.08 9a7 7 0 0 0 1.32 3.185l2.158-2.158A4 4 0 0 1 4.13 9H1.08zm10.786 0a4 4 0 0 1-.425 1.027l2.158 2.158A7 7 0 0 0 14.921 9h-3.055zm-5.894 2.441L3.814 13.6a7 7 0 0 0 3.185 1.322v-3.055a4 4 0 0 1-1.027-.426z" fill-opacity=".2"/><path d="M10.027 11.4A4 4 0 0 1 9 11.828v3.05a7 7 0 0 0 3.185-1.32z"/></g></svg>
